X: 1
T:Kerry Cow, The
R:polka
S:Mary Bergin (version 1)
D:Sean Ryan: Siuil Uait
Z:id:hn-polka-23
M:2/4
L:1/8
K:D
A>B AG|FA d2|G>A GF|EF G/F/E|A>B AG|FA de/d/|cA GE|D2 D2:|
|:d>e fd|cA A>d|BG GA/B/|cA A2|d>e fd|cA Ad|BG AF|D2 D2:|
"Version 2:"
A>B AF|Ad cA|G>A GE|FG AF|A>B AF|Ad c>B|AF GE|D2 D2:|
|:d>e fd|cA A~A|BG G~G|BA AF|d/c/d/e/ fd|cA AF|GB AF|1 D2 D2:|2 DE FG||
